X: 1
T: Too Much Mustard [G]
T: Tr\`es Moutarde
C: Cecil Macklin (1911)
R: one or two step
Z: 2018 John Chambers <jc:trillian.mit.edu>
M: 2/4
L: 1/8
P: I AA BB C AA DD EE I AA (original)
P: I AA BB CC AA DD I AA (LCD)
K: G
%%indent 350
"I"||\
[dD][eE] [fF][gG] | [^g^G][aA] [d'2d2] |\
[dcF][dc^E] [dcF][dc^E] | [d2c2F2] [d'c'fd] (3(D/E/F/) ||
"A"|:\
"G"zA GA | GA G2 | zB AG | DB, D2 | "D7"zF EF | DA, D2 |\
[1 zE DE | D2 d (3(D/E/F/) :|[2 d^d ef | "G"g2 !fine!G2 |]
"B"|:\
"Gm"G2 _B2- | BG ^FG | "Eb"_EG "/D"_B2- | "/C"BG "/Bb"A_B |\
"C7"_B2 A2- | "D7"AD EF |[1 "Gm"AG D_B, | "D7"D4 :|[2 "Gm"G4- | G4 |]
"C"|:\
"G7"G G2 B | d2 _e2 | "Cm"d c2 G | _E2 =FE |\
"Gm"G G2 G | "D"GD EF | "Gm"G4- | G2 g (3(D/E/"->A"F/) :|
P: Trio.
"D"|:\
"Em"[BG][BG] "B7"[AF][A/F/][A/F/] | "Em"[GE][GE] EB, |\
"B7"[B^D][cD] [B2-D2-] | [BD][c^D] [B2D2] |\
"Em"[BG][BG] "B7"[AF][A/F/][A/F/] | "Em"[GE][GE] EB, |\
"B7"[B^D][cF] [^cA][^dA] | "Em"[e4G4] :|
"F"|:\
"C"[ge][ec] [ge][ec] | "G7"[gB][ac] [g2B2] |\
"C"[ge][ec] [ge][ec] | "G7"[gB][ac] [g2B2] |\
"A7"[eG][^cG] [eG][cG] | "D7"[d^F][eF] [d2F2] |\
[1 "D7"[BF][AF] [^GF][AF] | "G7"[d2G2=F2] [g2=f2] :|\
[2 "G"[GB,][AC]  [GB,][eG] | "C"[c2E2] [c'2e2] "d.C."|]

%%sep 2 1 500
%%sep 1 1 500

